X:209
%%etbk:tnset id:158,pos:1,rep:3x,ant:
%%etbk:wsite http://www.trad.katesplacedoolin.com/tunes/laureltree.html
%%etbk:video src:ytube,cde:Aqgx81sV904,desc:second tune
%%etbk:pldat 2016-09-15T18:38,2016-09-11T15:32,2016-07-09T13:58,2016-07-07T15:19,2015-12-15T17:06,2014-12-29T17:15,2014-12-18T18:38,2014-04-30T15:35,2014-04-09T17:15,2014-04-08T17:12,2014-03-26T16:58,2014-03-25T17:33,2013-11-19T16:42,2013-11-16T15:25,2013-11-13T16:33,2013-05-14T18:40,2013-05-02T18:02
T:Laurel Tree, The
Z: Piano Box Version by Martin Fleischmann
H: Created 2013-02-19 /  Last Modified 2013-02-19
M:4/4
R:Reel
K:Ador
|: "am"!5!e!1!A!2!A!1!A !5!e2!4!d!3!c | "em"!2!B!1!A!1!G!2!B !1!ABc!4!d | "am"!5!e!1!A!2!A!1!A !5!e2!4!d!3!c  | "em"!2!B!1!A!1!G!2!B "am"!1!A2!2!B!4!d |
"am"!5!e!1!A!2!A!1!A !5!eA!4!d!3!c | "em"!2!B!1!A!1!G!2!B !1!ABc!4!d | "am"!2!eeef !4!g2af | "em"!4!ge!1!d!2!B "am"!1!A2 !2!(3Bc!4!d:|
"am"!2!e!5!aag !2!e!4!g!1!d!3!c | "em"!2!B!1!A!1!G!2!B !1!ABc!4!d | !2!eaag egdc | BAGB "am"A2Bd |
"am"!2!e!5!aag !2!e!4!g!1!d!3!c | "em"!2!B!1!A!1!G!2!B !1!ABc!4!d | "am"!2!eeef !4!g2af | "em"!4!ge!1!d!2!B "am"!1!A2 (3Bcd |
"am"!2!e!5!aag !2!e!4!g!1!d!3!c | "em"!2!B!1!A!1!G!2!B !1!ABc!4!d | "am"!2!e!5!aag !5!a2!3!g!4!a | "em"!5!bagb "am"!4!a2!4!a!3!g |
"am"!2!e!5!aag !2!e!4!g!1!d!3!c | "em"!2!B!1!A!1!G!2!B !1!ABc!4!d | "am"!2!eeef !4!g2af | "em"!4!ge!1!d!2!B "am"!1!A2 (3Bcd||


